X: 908
T: The pet of the house
C: anon.
O: Ireland
B: Francis O'Neill: "The Dance Music of Ireland" (1907) no. 908
R: Hornpipe
Z: Transcribed by Frank Nordberg - http://www.musicaviva.com
F: http://www.musicaviva.com/abc/tunes/ireland/oneill-1001/oneill-1001-090
8.abc
M: C|
L: 1/8
K: G
D2|G2G2 G>BA>c|B2B2 B>dc>e|d>gf>e d>cB>A|G>Bd>^c e>d=c>A|G2G2 G>BA>c|B2
B2 B>dc>e|d>gf>e dcBA|G2B2G2:|
|:d>c|B>dG>d B>dG>d|c>eA>e c>eA>e|B>dG>d B>dG>d|A>GFE Dedc|B>dG>d B>dG>d|
c>eA>e c>eA>e|G>gf>e dcBA|G2B2G2:|
W:
W:
W: From Musica Viva - http://www.musicaviva.com
W: the Internet center for free sheet music downloads.


